build/assets/logos/atlassian.svg

<svg width="48" height="48" viewBox="0 0 48 48" fill="none" xmlns="http://www.w3.org/2000/svg">
<g clip-path="url(#clip0_459_65346)">
<g clip-path="url(#clip1_459_65346)">
<path d="M41.3175 36.5672L25.4402 4.81262C25.1276 4.12502 24.8151 4 24.44 4C24.1275 4 23.7524 4.12502 23.3774 4.75011C21.127 8.31312 20.1269 12.4387 20.1269 16.7518C20.1269 22.7527 23.1898 28.3785 27.6905 37.4423C28.1906 38.4425 28.5656 38.63 29.4407 38.63H40.4423C41.2549 38.63 41.6925 38.3175 41.6925 37.6924C41.6925 37.3798 41.63 37.1923 41.3175 36.5672ZM18.2516 21.565C17.0014 19.6898 16.6264 19.5647 16.3138 19.5647C16.0013 19.5647 15.8138 19.6898 15.2512 20.8149L7.31255 36.6922C7.06251 37.1923 7 37.3798 7 37.6299C7 38.1299 7.43756 38.63 8.3752 38.63H19.5643C20.3144 38.63 20.877 38.0049 21.1895 36.8172C21.5646 35.317 21.6896 34.0043 21.6896 32.4416C21.6896 28.066 19.7518 23.8154 18.2516 21.565Z" fill="#1868DB"/>
</g>
</g>
<defs>
<clipPath id="clip0_459_65346">
<rect width="48" height="48" fill="white"/>
</clipPath>
<clipPath id="clip1_459_65346">
<rect width="34.6925" height="34.63" fill="white" transform="translate(7 4)"/>
</clipPath>
</defs>
</svg>

<svg xmlns="http://www.w3.org/2000/svg" width="48" height="48" fill="none" viewBox="0 0 48 48"><g clip-path="url(#a)"><g clip-path="url(#b)"><path fill="#1868db" d="M41.318 36.567 25.44 4.813c-.312-.688-.625-.813-1-.813-.312 0-.688.125-1.063.75-2.25 3.563-3.25 7.689-3.25 12.002 0 6 3.063 11.627 7.564 20.69.5 1 .875 1.188 1.75 1.188h11.001c.813 0 1.25-.312 1.25-.938 0-.312-.062-.5-.374-1.125M18.252 21.565c-1.25-1.875-1.626-2-1.938-2s-.5.125-1.063 1.25L7.313 36.692c-.25.5-.313.688-.313.938 0 .5.438 1 1.375 1h11.19c.75 0 1.312-.625 1.624-1.813.376-1.5.5-2.813.5-4.375 0-4.376-1.937-8.627-3.437-10.877"/></g></g><defs><clipPath id="a"><path fill="#fff" d="M0 0h48v48H0z"/></clipPath><clipPath id="b"><path fill="#fff" d="M7 4h34.693v34.63H7z"/></clipPath></defs></svg>
